X:1
T:Anitra's Dance
C:Edvard Grieg
M:3/4
L:1/8
Q:1/4=160
K:Am
% A section — pizzicato theme, Peer Gynt Op. 46 (16 bars, E4–C5)
E2 | A3 c BA | ^G2 E4 | E2 A3 c | BA ^G2 A2 |
c3 BcB | A^G A2 z2 | AGFE A^G | A4 z2 |
E2 A3 c | BA ^G2 E2 | E2 A3 c | BA ^G2 A2 |
c2 BA G^F | E2 ^FG A2 | cBAG ^FE | A4 |]
